X: 38633
T: Storks Have Landed, The
R: reel
M: 4/4
K: Cmajor
CD|:E~G3 AGEG|cGBG AGEG|DA,A,D DEFG|AdcA GEDF|
E~G3 AGEG|cGBG AGEG|fedc A^GAB|1 c/c/A GF ECCD:|2 c/c/A GF ECC2||
ecgc acgc|ecgc ~a3g|ecgc acgb|a~f3 c'faf|
ecgc acgb|a~f3 c'fae-|efdc A^GAB|1 c/c/A GF ECC2:|2 c/c/A GF ECCD||

